build/images/temperature.svg

<svg width="91" height="91" viewBox="0 0 91 91" fill="none" xmlns="http://www.w3.org/2000/svg">
<rect width="91" height="91" rx="45.5" fill="#FAC663"/>
<path d="M60.1806 30.6389C60.6331 30.6389 61 31.0058 61 31.4584C61 31.9109 60.6331 32.2778 60.1806 32.2778H52.8522C52.3996 32.2778 52.0328 31.9109 52.0328 31.4584C52.0328 31.0058 52.3996 30.6389 52.8522 30.6389H60.1806ZM57.2395 35.1568C57.2395 34.7042 56.8727 34.3374 56.4201 34.3374H52.8522C52.3996 34.3374 52.0328 34.7042 52.0328 35.1568C52.0328 35.6093 52.3996 35.9762 52.8522 35.9762H56.4201C56.8727 35.9762 57.2395 35.6093 57.2395 35.1568ZM52.0328 38.8552C52.0328 39.3077 52.3996 39.6746 52.8522 39.6746H60.1806C60.6331 39.6746 61 39.3077 61 38.8552C61 38.4026 60.6331 38.0358 60.1806 38.0358H52.8522C52.3996 38.0358 52.0328 38.4026 52.0328 38.8552ZM57.2395 42.5548C57.2395 42.1022 56.8727 41.7354 56.4201 41.7354H52.8522C52.3996 41.7354 52.0328 42.1022 52.0328 42.5548C52.0328 43.0073 52.3996 43.3742 52.8522 43.3742H56.4201C56.8727 43.3742 57.2395 43.0073 57.2395 42.5548ZM52.0328 46.2532C52.0328 46.7058 52.3996 47.0726 52.8522 47.0726H60.1806C60.6331 47.0726 61 46.7058 61 46.2532C61 45.8006 60.6331 45.4338 60.1806 45.4338H52.8522C52.3996 45.4338 52.0328 45.8006 52.0328 46.2532ZM53.4305 61.1337C53.4305 67.6769 48.1751 73 41.7153 73C35.2554 73 30 67.6769 30 61.1337C30 56.8934 32.1984 53.04 35.7853 50.9081V24.0064C35.7853 20.6944 38.4454 18 41.7153 18C44.9851 18 47.6452 20.6944 47.6452 24.0064V50.9081C51.2321 53.0376 53.4305 56.8923 53.4305 61.1337ZM51.8053 61.1337C51.8053 57.5357 49.8313 53.5783 46.6529 51.9434L46.02 51.6176V24.0076C46.02 21.9871 43.7089 19.64 41.7153 19.64C39.7216 19.64 37.4105 21.9871 37.4105 24.0076V51.6176L36.7776 51.9434C33.5992 53.5795 31.6252 57.5369 31.6252 61.1337C31.6252 66.3842 36.5316 71.3612 41.7153 71.3612C46.8989 71.3612 51.8053 66.3842 51.8053 61.1337ZM49.1887 61.1337C49.1887 65.3071 45.8367 68.7023 41.7153 68.7023C37.595 68.7023 34.2429 65.3071 34.2429 61.1337C34.2429 57.7127 37.2136 54.7089 40.4811 53.8287L40.9104 53.7127V40.0617C40.9104 39.6169 41.271 39.2563 41.7158 39.2563C42.1607 39.2563 42.5213 39.6169 42.5213 40.0617V53.7115L42.9506 53.8287C46.2193 54.7089 49.1887 57.7138 49.1887 61.1337ZM42.7444 56.0769C42.5663 55.2753 41.8002 55.4644 40.9891 55.6519C38.1566 56.3012 36.178 58.8104 36.178 61.7544C36.178 62.5877 36.178 63.4808 37.2333 63.4808C37.7931 63.4808 37.9222 62.5512 37.9222 61.7179C37.9222 60.2213 38.8368 57.9881 40.9891 57.4872C41.7897 57.3008 42.9249 56.8879 42.7444 56.0769Z" fill="#FFFDFB"/>
</svg>

<svg width="91" height="91" fill="none" xmlns="http://www.w3.org/2000/svg"><rect width="91" height="91" rx="45.5" fill="#FAC663"/><path d="M60.18 30.639a.82.82 0 010 1.639h-7.328a.82.82 0 110-1.64h7.329zm-2.94 4.518a.82.82 0 00-.82-.82h-3.568a.82.82 0 100 1.64h3.568a.82.82 0 00.82-.82zm-5.207 3.698c0 .453.367.82.82.82h7.328a.82.82 0 000-1.64h-7.329a.82.82 0 00-.82.82zm5.206 3.7a.82.82 0 00-.819-.82h-3.568a.82.82 0 100 1.64h3.568a.82.82 0 00.82-.82zm-5.206 3.698c0 .453.367.82.82.82h7.328a.82.82 0 100-1.64h-7.329a.82.82 0 00-.82.82zm1.398 14.88C53.43 67.678 48.175 73 41.715 73 35.255 73 30 67.677 30 61.134c0-4.24 2.198-8.094 5.785-10.226V24.006c0-3.312 2.66-6.006 5.93-6.006 3.27 0 5.93 2.694 5.93 6.006v26.902c3.587 2.13 5.785 5.984 5.785 10.226zm-1.626 0c0-3.597-1.974-7.555-5.152-9.19l-.633-.325v-27.61c0-2.02-2.311-4.368-4.305-4.368-1.993 0-4.305 2.347-4.305 4.368v27.61l-.632.325c-3.179 1.637-5.153 5.594-5.153 9.19 0 5.251 4.907 10.228 10.09 10.228 5.184 0 10.09-4.977 10.09-10.227zm-2.616 0c0 4.174-3.352 7.57-7.474 7.57-4.12 0-7.472-3.396-7.472-7.57 0-3.42 2.97-6.424 6.238-7.304l.43-.116V40.062a.805.805 0 011.61 0v13.65l.43.117c3.268.88 6.238 3.885 6.238 7.305zm-6.445-5.056c-.178-.802-.944-.613-1.755-.425-2.832.65-4.811 3.158-4.811 6.102 0 .834 0 1.727 1.055 1.727.56 0 .69-.93.69-1.763 0-1.497.914-3.73 3.066-4.23.8-.187 1.936-.6 1.755-1.411z" fill="#FFFDFB"/></svg>
